sa.svg

<svg xmlns="http://www.w3.org/2000/svg" viewBox="-10 -5 800 800"><path fill="#61afef" d="M389-5Q224-5 108 112-10 232-10 396t118.5 281.5Q227 795 389 795q166 0 287-118 114-114 114-281.5t-116.5-284Q557-5 389-5Zm2 72q136 0 231 97 96 94 96 231.5T624 625q-100 97-234 97t-231-96.5Q62 529 62 396t98-232q94-97 231-96Zm-3 118q-69 0-116.5 40T212 339h-31l79 79 79-79h-29q10-71 90-71 44 0 67.5 33.5T491 398q0 61-25.5 97.5T398 532q-84 0-88-73H209q10 75 59.5 115.5T386 615q92 0 150-61t58-153q0-95-56-155.5T388 185Z"/></svg>

<?xml version="1.0" encoding="UTF-8" standalone="no"?>
<svg
   width="800"
   height="800"
   viewBox="-10 -5 800 800"
   version="1.1"
   id="svg1023"
   sodipodi:docname="sa.svg"
   inkscape:version="1.1.2 (b8e25be8, 2022-02-05)"
   xmlns:inkscape="http://www.inkscape.org/namespaces/inkscape"
   xmlns:sodipodi="http://sodipodi.sourceforge.net/DTD/sodipodi-0.dtd"
   xmlns="http://www.w3.org/2000/svg"
   xmlns:svg="http://www.w3.org/2000/svg">
  <defs
     id="defs1027" />
  <sodipodi:namedview
     id="namedview1025"
     pagecolor="#ffffff"
     bordercolor="#666666"
     borderopacity="1.0"
     inkscape:pageshadow="2"
     inkscape:pageopacity="0.0"
     inkscape:pagecheckerboard="0"
     showgrid="false"
     inkscape:zoom="0.59961315"
     inkscape:cx="230.14839"
     inkscape:cy="283.51613"
     inkscape:window-width="1296"
     inkscape:window-height="842"
     inkscape:window-x="0"
     inkscape:window-y="38"
     inkscape:window-maximized="0"
     inkscape:current-layer="svg1023"
     fit-margin-top="0"
     fit-margin-left="0"
     fit-margin-right="0"
     fit-margin-bottom="0" />
  <path
     fill="currentColor"
     d="M 389,-5 Q 224,-5 108,112 -10,232 -10,396 -10,560 108.5,677.5 227,795 389,795 555,795 676,677 790,563 790,395.5 790,228 673.5,111.5 557,-5 389,-5 Z m 2,72 q 136,0 231,97 96,94 96,231.5 Q 718,533 624,625 524,722 390,722 256,722 159,625.5 62,529 62,396 62,263 160,164 254,67 391,68 Z m -3,118 Q 319,185 271.5,225 224,265 212,339 h -31 l 79,79 79,-79 h -29 q 10,-71 90,-71 44,0 67.5,33.5 Q 491,335 491,398 491,459 465.5,495.5 440,532 398,532 314,532 310,459 H 209 q 10,75 59.5,115.5 Q 318,615 386,615 q 92,0 150,-61 58,-61 58,-153 0,-95 -56,-155.5 Q 482,185 388,185 Z"
     id="path1021"
     style="fill:#61afef;fill-opacity:1" />
</svg>
